svg/emoji_u23cf.svg

<svg enable-background="new 0 0 128 128" viewBox="0 0 128 128" xmlns="http://www.w3.org/2000/svg"><linearGradient id="a" x1="64" x2="64" y1="4.25" y2="123.91" gradientUnits="userSpaceOnUse"><stop stop-color="#FFAB40" offset="0"/><stop stop-color="#FF6D00" offset="1"/></linearGradient><path d="m116 124h-104c-4.42 0-8-3.58-8-8v-104c0-4.42 3.58-8 8-8h104c4.42 0 8 3.58 8 8v104c0 4.42-3.58 8-8 8z" fill="url(#a)"/><g opacity=".2"><path d="m116 7c2.76 0 5 2.24 5 5v104c0 2.76-2.24 5-5 5h-104c-2.76 0-5-2.24-5-5v-104c0-2.76 2.24-5 5-5h104m0-3h-104c-4.42 0-8 3.58-8 8v104c0 4.42 3.58 8 8 8h104c4.42 0 8-3.58 8-8v-104c0-4.42-3.58-8-8-8z" fill="#424242"/></g><g fill="#424242" opacity=".2"><path d="m63.84 24c0.9 0 1.79 0.45 2.3 1.34l29.18 50.69c1.01 1.77-0.27 3.97-2.3 3.97h-58.36c-2.04 0-3.31-2.2-2.3-3.97l29.18-50.69c0.5-0.89 1.4-1.34 2.3-1.34m0-3c-2.05 0-3.89 1.06-4.91 2.85l-29.18 50.68c-1.02 1.78-1.01 3.89 0.01 5.65s2.85 2.82 4.89 2.82h58.36c2.04 0 3.87-1.05 4.89-2.82 1.02-1.76 1.03-3.87 0.02-5.64l-29.18-50.7c-1.01-1.78-2.85-2.84-4.9-2.84z"/><path d="m94.15 88c1.02 0 1.85 0.83 1.85 1.85v8.3c0 1.02-0.83 1.85-1.85 1.85h-60.3c-1.02 0-1.85-0.83-1.85-1.85v-8.3c0-1.02 0.83-1.85 1.85-1.85h60.3m0-3h-60.3c-2.67 0-4.85 2.18-4.85 4.85v8.3c0 2.68 2.18 4.85 4.85 4.85h60.3c2.68 0 4.85-2.18 4.85-4.85v-8.3c0-2.67-2.18-4.85-4.85-4.85z"/></g><g fill="#FAFAFA"><path d="M63.84,80h29.18c2.04,0,3.31-2.2,2.3-3.97L66.14,25.34c-1.02-1.78-3.59-1.78-4.61,0L32.35,76.03 C31.34,77.8,32.62,80,34.66,80H63.84z"/><path d="m32 98.15v-8.3c0-1.02 0.83-1.85 1.85-1.85h60.3c1.02 0 1.85 0.83 1.85 1.85v8.3c0 1.02-0.83 1.85-1.85 1.85h-60.3c-1.02 0-1.85-0.83-1.85-1.85z"/></g></svg>

<svg width="128" height="128" style="enable-background:new 0 0 128 128;" xmlns="http://www.w3.org/2000/svg" xmlns:xlink="http://www.w3.org/1999/xlink">
  <g>
    <linearGradient id="SVGID_1_" gradientUnits="userSpaceOnUse" x1="64" x2="64" y1="4.25" y2="123.9133">
      <stop offset="0" style="stop-color:#FFAB40"/>
      <stop offset="1" style="stop-color:#FF6D00"/>
    </linearGradient>
    <path d="M116,124H12c-4.42,0-8-3.58-8-8V12c0-4.42,3.58-8,8-8h104c4.42,0,8,3.58,8,8v104 C124,120.42,120.42,124,116,124z" style="fill:url(#SVGID_1_);"/>
    <g style="opacity:0.2;">
      <path d="M116,7c2.76,0,5,2.24,5,5v104c0,2.76-2.24,5-5,5H12c-2.76,0-5-2.24-5-5V12c0-2.76,2.24-5,5-5H116 M116,4H12c-4.42,0-8,3.58-8,8v104c0,4.42,3.58,8,8,8h104c4.42,0,8-3.58,8-8V12C124,7.58,120.42,4,116,4L116,4z" style="fill:#424242;"/>
    </g>
    <g style="opacity:0.2;">
      <path d="M63.84,24c0.9,0,1.79,0.45,2.3,1.34l29.18,50.69c1.01,1.77-0.27,3.97-2.3,3.97H63.84H34.66 c-2.04,0-3.31-2.2-2.3-3.97l29.18-50.69C62.04,24.45,62.94,24,63.84,24 M63.84,21c-2.05,0-3.89,1.06-4.91,2.85L29.75,74.53 c-1.02,1.78-1.01,3.89,0.01,5.65c1.02,1.76,2.85,2.82,4.89,2.82h29.18h29.18c2.04,0,3.87-1.05,4.89-2.82 c1.02-1.76,1.03-3.87,0.02-5.64l-29.18-50.7C67.73,22.06,65.89,21,63.84,21L63.84,21z" style="fill:#424242;"/>
      <path d="M94.15,88c1.02,0,1.85,0.83,1.85,1.85v8.3c0,1.02-0.83,1.85-1.85,1.85h-60.3 c-1.02,0-1.85-0.83-1.85-1.85v-8.3c0-1.02,0.83-1.85,1.85-1.85H94.15 M94.15,85h-60.3C31.18,85,29,87.18,29,89.85v8.3 c0,2.68,2.18,4.85,4.85,4.85h60.3c2.68,0,4.85-2.18,4.85-4.85v-8.3C99,87.18,96.82,85,94.15,85L94.15,85z" style="fill:#424242;"/>
    </g>
    <g>
      <path d="M63.84,80h29.18c2.04,0,3.31-2.2,2.3-3.97L66.14,25.34c-1.02-1.78-3.59-1.78-4.61,0L32.35,76.03 C31.34,77.8,32.62,80,34.66,80H63.84z" style="fill:#FAFAFA;"/>
      <path d="M32,98.15v-8.3c0-1.02,0.83-1.85,1.85-1.85h60.3c1.02,0,1.85,0.83,1.85,1.85v8.3 c0,1.02-0.83,1.85-1.85,1.85h-60.3C32.83,100,32,99.17,32,98.15z" style="fill:#FAFAFA;"/>
    </g>
  </g>
</svg>
